actions/16/games-config-tiles.svg

<svg xmlns="http://www.w3.org/2000/svg" style="fill-rule:evenodd;clip-rule:evenodd;stroke-linejoin:round;stroke-miterlimit:2" width="100%" height="100%" viewBox="0 0 16 16" xml:space="preserve">
 <defs>
  <style id="current-color-scheme" type="text/css">
   .ColorScheme-Text { color:#dfdfdf; } .ColorScheme-Highlight { color:#4285f4; } .ColorScheme-NeutralText { color:#ff9800; } .ColorScheme-PositiveText { color:#4caf50; } .ColorScheme-NegativeText { color:#f44336; }
  </style>
 </defs>
 <path style="fill:currentColor;" class="ColorScheme-Text" d="M15.26,3.082c0,-1.293 -1.049,-2.342 -2.342,-2.342l-9.836,0c-1.293,0 -2.342,1.049 -2.342,2.342l0,9.836c0,1.293 1.049,2.342 2.342,2.342l9.836,0c1.293,0 2.342,-1.049 2.342,-2.342l0,-9.836Zm-0.895,0.08c0,-0.843 -0.684,-1.527 -1.527,-1.527l-9.676,0c-0.843,0 -1.527,0.684 -1.527,1.527l0,9.676c0,0.843 0.684,1.527 1.527,1.527l9.676,0c0.843,0 1.527,-0.684 1.527,-1.527l-0,-9.676Zm-10.365,6.838l-0,1l8,0l-0,-1l-8,0Zm-0,-3l-0,1l8,0l-0,-1l-8,0Zm-0,-3l-0,1l8,0l-0,-1l-8,0Z"/>
</svg>

<svg xmlns="http://www.w3.org/2000/svg" style="fill-rule:evenodd;clip-rule:evenodd;stroke-linejoin:round;stroke-miterlimit:2" viewBox="0 0 16 16" xml:space="preserve">
    <defs>
        <style id="current-color-scheme" type="text/css">
            .ColorScheme-Highlight{color:#4285f4}.ColorScheme-NeutralText{color:#ff9800}.ColorScheme-PositiveText{color:#4caf50}.ColorScheme-NegativeText{color:#f44336}
        </style>
    </defs>
    <path style="fill:currentColor;color:#dfdfdf" d="M15.26 3.082A2.343 2.343 0 0 0 12.918.74H3.082A2.343 2.343 0 0 0 .74 3.082v9.836a2.343 2.343 0 0 0 2.342 2.342h9.836a2.343 2.343 0 0 0 2.342-2.342V3.082Zm-.895.08c0-.843-.684-1.527-1.527-1.527H3.162c-.843 0-1.527.684-1.527 1.527v9.676c0 .843.684 1.527 1.527 1.527h9.676c.843 0 1.527-.684 1.527-1.527V3.162ZM4 10v1h8v-1H4Zm0-3v1h8V7H4Zm0-3v1h8V4H4Z"/>
</svg>
